X: 10892
T: Drowsy Dragon
R: jig
M: 6/8
K: Eminor
|:GBG e2e|GBG e2e|dBG F2D|FGA B2A|
GBG e2e|GBG e2e|dBG ABA|G2B G3:|
|:Ace ^dec|BGD BGD|Ace ^dec|B3 B3|
Ace ^dec|BGD BGD|EFG F2D|E3 E3:|
|:EFG B2e|^A2e B3|ABc BAG|A2^A B3|
EFG B2e|^A2e ^d2e|dcB AGF|E3 e3:|

